icons/1_Primary/Mailgun.svg

<svg width="1024" height="1024" fill="none" xmlns="http://www.w3.org/2000/svg"><g clip-path="url(#a)"><path d="M512 1024c282.77 0 512-229.23 512-512S794.77 0 512 0 0 229.23 0 512s229.23 512 512 512Z" fill="#FF837D"/><path d="M512 415.21a96.818 96.818 0 0 0-68.451 165.293 96.816 96.816 0 0 0 105.523 20.968 96.814 96.814 0 0 0 43.445-35.673 96.81 96.81 0 0 0-12.068-122.238A96.834 96.834 0 0 0 512 415.21ZM361.06 512A151 151 0 0 1 663 512a161.346 161.346 0 0 1-.84 16.3c-1.14 14.73 9.68 26 24.29 26 24.84 0 27.48-32 27.48-42.28 0-111.49-90.39-201.82-201.82-201.82-111.43 0-201.93 90.4-201.93 201.8S400.57 713.85 512 713.85a201.423 201.423 0 0 0 149.38-66.09l41.49 34.82A255.453 255.453 0 0 1 512 768c-141.38 0-256-114.62-256-256s114.62-256 256-256 256 114.65 256 256c0 56.83-27.06 103-81.42 103-23.93 0-38.49-10.94-46.43-23.21a150.913 150.913 0 0 1-169.662 65.449A150.908 150.908 0 0 1 361.06 512ZM512 467.77a44.32 44.32 0 1 1 0 88.64 44.32 44.32 0 0 1 0-88.64Z" fill="#fff"/></g><defs><clipPath id="a"><path fill="#fff" d="M0 0h1024v1024H0z"/></clipPath></defs></svg>

<svg width="1024" height="1024" viewBox="0 0 1024 1024" fill="none" xmlns="http://www.w3.org/2000/svg">
<g clip-path="url(#clip0_2_2742)">
<path d="M512 1024C794.77 1024 1024 794.77 1024 512C1024 229.23 794.77 0 512 0C229.23 0 0 229.23 0 512C0 794.77 229.23 1024 512 1024Z" fill="#FF837D"/>
<path d="M512 415.21C492.85 415.21 474.129 420.889 458.207 431.529C442.284 442.169 429.874 457.292 422.547 474.986C415.22 492.679 413.304 512.148 417.043 530.93C420.781 549.712 430.005 566.963 443.549 580.503C457.092 594.042 474.347 603.261 493.13 606.993C511.913 610.726 531.381 608.804 549.072 601.471C566.763 594.139 581.882 581.724 592.517 565.798C603.153 549.873 608.826 531.15 608.82 512C608.809 486.328 598.604 461.71 580.449 443.56C562.293 425.41 537.672 415.213 512 415.21ZM361.06 512C361.848 472.481 378.1 434.847 406.326 407.178C434.553 379.508 472.504 364.01 512.03 364.01C551.556 364.01 589.507 379.508 617.734 407.178C645.96 434.847 662.212 472.481 663 512C662.995 517.444 662.715 522.884 662.16 528.3C661.02 543.03 671.84 554.3 686.45 554.3C711.29 554.3 713.93 522.3 713.93 512.02C713.93 400.53 623.54 310.2 512.11 310.2C400.68 310.2 310.18 400.6 310.18 512C310.18 623.4 400.57 713.85 512 713.85C540.134 713.877 567.962 708.011 593.69 696.628C619.419 685.245 642.477 668.598 661.38 647.76L702.87 682.58C678.881 709.477 649.472 730.993 616.576 745.716C583.68 760.438 548.04 768.032 512 768C370.62 768 256 653.38 256 512C256 370.62 370.62 256 512 256C653.38 256 768 370.65 768 512C768 568.83 740.94 615 686.58 615C662.65 615 648.09 604.06 640.15 591.79C622.831 619.662 596.9 641.129 566.284 652.94C535.669 664.75 502.038 666.259 470.488 657.239C438.937 648.219 411.187 629.161 391.441 602.953C371.695 576.745 361.029 544.814 361.06 512ZM512 467.77C520.766 467.77 529.334 470.369 536.623 475.239C543.911 480.109 549.592 487.031 552.946 495.129C556.301 503.228 557.178 512.139 555.468 520.736C553.758 529.334 549.537 537.231 543.339 543.429C537.141 549.627 529.244 553.848 520.646 555.558C512.049 557.268 503.138 556.391 495.039 553.036C486.941 549.682 480.019 544.001 475.149 536.713C470.279 529.424 467.68 520.856 467.68 512.09C467.68 506.27 468.826 500.507 471.054 495.129C473.281 489.752 476.546 484.867 480.661 480.751C484.777 476.636 489.662 473.371 495.039 471.144C500.417 468.916 506.18 467.77 512 467.77Z" fill="white"/>
</g>
<defs>
<clipPath id="clip0_2_2742">
<rect width="1024" height="1024" fill="white"/>
</clipPath>
</defs>
</svg>
